build/img/icons/vk.svg

<svg width="33" height="34" viewBox="0 0 33 34" fill="none" xmlns="http://www.w3.org/2000/svg">
<path d="M16.1357 0C7.30841 0 0.152344 7.61125 0.152344 17C0.152344 26.3887 7.30841 34 16.1357 34C24.9629 34 32.119 26.3887 32.119 17C32.119 7.61125 24.9629 0 16.1357 0ZM23.0668 19.247C23.1926 19.4125 23.4917 19.7349 23.965 20.2147H23.976L23.987 20.2261L23.998 20.2382L24.0204 20.2616C25.0628 21.2917 25.7687 22.1608 26.1386 22.8686C26.1609 22.9075 26.1849 22.9572 26.2108 23.0161C26.2364 23.0751 26.2624 23.1792 26.2883 23.3285C26.3139 23.4784 26.312 23.6115 26.2828 23.7294C26.2533 23.847 26.1609 23.9559 26.0057 24.0538C25.8504 24.1524 25.6323 24.2013 25.3513 24.2013L22.5122 24.2489C22.3349 24.2882 22.1278 24.2686 21.8912 24.19C21.6543 24.111 21.4624 24.0245 21.3146 23.9304L21.0926 23.7883C20.8705 23.6232 20.6119 23.3716 20.3163 23.0337C20.0203 22.6955 19.7672 22.3908 19.5565 22.1194C19.3458 21.8481 19.1202 21.6206 18.8797 21.4351C18.6392 21.2503 18.4305 21.1893 18.2532 21.2524C18.2312 21.2607 18.2013 21.2745 18.1644 21.2938C18.1271 21.3134 18.0646 21.37 17.9757 21.4648C17.8869 21.5592 17.8075 21.6754 17.7372 21.8126C17.6669 21.9505 17.604 22.155 17.5485 22.4263C17.4931 22.6972 17.4688 23.0023 17.4766 23.3405C17.4766 23.4581 17.4633 23.5667 17.4377 23.6649C17.4118 23.7632 17.3839 23.8359 17.3544 23.8828L17.31 23.9418C17.1768 24.0917 16.981 24.1779 16.7224 24.2013H15.4469C14.9218 24.2331 14.3822 24.1683 13.8279 24.0069C13.2736 23.8452 12.7871 23.6373 12.3697 23.3815C11.9515 23.1264 11.571 22.8668 11.2274 22.6035C10.8835 22.3397 10.6229 22.1139 10.4456 21.9254L10.1685 21.642C10.0946 21.5637 9.99283 21.4455 9.8635 21.2879C9.73418 21.1307 9.47001 20.7732 9.07069 20.2147C8.67137 19.6562 8.2795 19.0629 7.89508 18.4334C7.51067 17.8043 7.05786 16.9745 6.53634 15.9444C6.01515 14.9146 5.53285 13.8453 5.08912 12.7362C5.04471 12.6107 5.02235 12.5045 5.02235 12.418C5.02235 12.3318 5.03337 12.2687 5.05573 12.2291L5.10014 12.1584C5.21099 12.0088 5.42167 11.934 5.73219 11.934L8.77087 11.9105C8.85968 11.9264 8.94461 11.9519 9.02596 11.9874C9.10732 12.0226 9.16663 12.056 9.20358 12.0874L9.25901 12.1229C9.37731 12.2098 9.4658 12.3353 9.52512 12.5004C9.67292 12.8941 9.84308 13.3009 10.0353 13.7215C10.2275 14.1421 10.3792 14.4627 10.49 14.6826L10.6673 15.025C10.8816 15.4966 11.0887 15.9058 11.2884 16.2516C11.4884 16.5977 11.6673 16.8673 11.8264 17.0596C11.9852 17.2524 12.1385 17.404 12.2867 17.5137C12.4345 17.624 12.5602 17.6791 12.664 17.6791C12.7674 17.6791 12.8672 17.6595 12.9635 17.6202C12.978 17.6123 12.9965 17.5926 13.0189 17.5612C13.0412 17.5299 13.0853 17.4433 13.1521 17.3013C13.2185 17.16 13.2685 16.9752 13.3018 16.747C13.3352 16.5194 13.3702 16.2009 13.4072 15.792C13.4441 15.3828 13.4441 14.8915 13.4072 14.3175C13.3923 14.0028 13.3589 13.716 13.3074 13.4564C13.2555 13.1971 13.2036 13.0161 13.1521 12.9138L13.0853 12.7724C12.9006 12.5052 12.5865 12.336 12.1428 12.2649C12.0465 12.2498 12.065 12.1553 12.1982 11.9823C12.324 11.8326 12.4643 11.7151 12.6196 11.6282C13.0114 11.4241 13.895 11.3297 15.2703 11.3448C15.8764 11.3531 16.3755 11.4038 16.7674 11.4982C16.9152 11.5379 17.039 11.5906 17.1389 11.6575C17.2387 11.724 17.3145 11.8188 17.3664 11.9402C17.4179 12.0622 17.4568 12.1881 17.4827 12.3177C17.5087 12.4477 17.5216 12.6269 17.5216 12.8545C17.5216 13.0827 17.5181 13.2992 17.5106 13.5033C17.5032 13.7077 17.4941 13.9852 17.4831 14.3348C17.4721 14.6847 17.4662 15.0094 17.4662 15.308C17.4662 15.3949 17.4627 15.5597 17.4552 15.8034C17.4477 16.0475 17.4455 16.236 17.4497 16.3695C17.4533 16.5032 17.4662 16.6628 17.4883 16.8473C17.5106 17.0321 17.5531 17.1858 17.616 17.3072C17.6785 17.4292 17.7618 17.5254 17.8655 17.5961C17.9245 17.6123 17.9874 17.6278 18.0542 17.6436C18.1206 17.6591 18.2166 17.6164 18.3423 17.5137C18.4678 17.4116 18.6084 17.2758 18.7637 17.1069C18.919 16.9383 19.1112 16.6749 19.3403 16.3167C19.5692 15.9596 19.8207 15.5366 20.0942 15.0488C20.538 14.231 20.9334 13.3461 21.2809 12.3946C21.3104 12.3156 21.3473 12.247 21.3917 12.1881C21.4361 12.1288 21.4766 12.0874 21.5136 12.064L21.558 12.0285C21.5726 12.0205 21.5911 12.0109 21.6134 11.9991C21.6358 11.9878 21.6838 11.9757 21.7577 11.9636C21.8316 11.9523 21.9055 11.9502 21.9797 11.9581L25.1736 11.934C25.4618 11.895 25.6984 11.9047 25.8831 11.9633C26.0679 12.0222 26.1826 12.0874 26.227 12.1581L26.2938 12.276C26.4637 12.7796 25.9094 13.9349 24.6304 15.7438C24.4528 15.9958 24.2123 16.3302 23.9095 16.7466C23.3329 17.5333 23.0004 18.0484 22.9122 18.2928C22.7858 18.6144 22.8376 18.933 23.0668 19.247Z" fill="#6D6D6D"/>
</svg>

<svg viewBox="0 0 33 34" fill="none" xmlns="http://www.w3.org/2000/svg"><path d="M16.136 0C7.308 0 .152 7.611.152 17s7.156 17 15.984 17c8.827 0 15.983-7.611 15.983-17S24.963 0 16.136 0zm6.93 19.247c.127.166.426.488.899.968h.011l.011.011.011.012.022.024c1.043 1.03 1.749 1.899 2.119 2.607.022.038.046.088.072.147.025.06.051.163.077.313a.977.977 0 01-.005.4c-.03.118-.122.227-.277.325-.156.098-.374.147-.655.147l-2.839.048c-.177.04-.384.02-.62-.059a2.636 2.636 0 01-.577-.26l-.222-.142c-.223-.165-.481-.416-.777-.754a20.229 20.229 0 01-.76-.915 3.8 3.8 0 00-.676-.684c-.24-.185-.45-.246-.627-.183a.855.855 0 00-.089.042 1.507 1.507 0 00-.427.519c-.07.138-.133.342-.188.613-.056.271-.08.576-.072.915 0 .117-.014.226-.04.324a.82.82 0 01-.083.218l-.044.059c-.133.15-.329.236-.588.26h-1.275a4.739 4.739 0 01-1.62-.195 5.991 5.991 0 01-1.457-.626 13.052 13.052 0 01-1.143-.777 6.73 6.73 0 01-.781-.679l-.277-.283a7.287 7.287 0 01-.306-.354 26.27 26.27 0 01-.792-1.073c-.4-.559-.791-1.152-1.176-1.782a36.893 36.893 0 01-1.359-2.489 40.02 40.02 0 01-1.447-3.208.989.989 0 01-.067-.318c0-.086.011-.15.034-.189l.044-.07c.111-.15.322-.225.632-.225l3.039-.023a1.057 1.057 0 01.433.176l.055.036a.778.778 0 01.266.377c.148.394.318.8.51 1.222.192.42.344.74.455.96l.177.343c.215.472.422.88.621 1.227.2.346.38.615.538.808.16.192.313.344.46.454.149.11.274.165.378.165.103 0 .203-.02.3-.059a.204.204 0 00.055-.059 2.003 2.003 0 00.283-.814c.033-.228.068-.546.105-.955.037-.41.037-.9 0-1.474a5.863 5.863 0 00-.1-.862c-.052-.259-.103-.44-.155-.542l-.067-.142c-.184-.267-.499-.436-.942-.507-.097-.015-.078-.11.055-.283a1.51 1.51 0 01.422-.354c.391-.204 1.275-.298 2.65-.283.606.008 1.105.059 1.497.153.148.04.272.093.372.16.1.066.175.16.227.282.052.122.09.248.117.378.026.13.039.309.039.537 0 .228-.004.444-.011.648-.008.205-.017.482-.028.832-.01.35-.017.674-.017.973 0 .087-.003.252-.01.495a9.84 9.84 0 00-.006.566c.003.134.016.294.038.478.023.185.065.339.128.46a.762.762 0 00.25.29l.188.047c.067.015.163-.028.288-.13.126-.102.266-.238.422-.407a6.05 6.05 0 00.576-.79c.23-.357.48-.78.754-1.268.444-.818.84-1.703 1.187-2.654a.812.812 0 01.11-.207c.045-.06.086-.1.123-.124l.044-.036.055-.029a.86.86 0 01.366-.041l3.195-.024c.288-.039.524-.03.71.03.184.058.299.123.343.194l.067.118c.17.504-.385 1.659-1.664 3.468a87.86 87.86 0 01-.72 1.003c-.577.786-.91 1.301-.998 1.546-.126.321-.074.64.155.954z" fill="#6D6D6D"/></svg>
